Numix-Light-GalliumOS/22/status/renamed-fluxgui.svg

<?xml version="1.0" encoding="UTF-8" standalone="no"?>
<svg
   xmlns:dc="http://purl.org/dc/elements/1.1/"
   xmlns:cc="http://creativecommons.org/ns#"
   xmlns:rdf="http://www.w3.org/1999/02/22-rdf-syntax-ns#"
   xmlns:svg="http://www.w3.org/2000/svg"
   xmlns="http://www.w3.org/2000/svg"
   xmlns:sodipodi="http://sodipodi.sourceforge.net/DTD/sodipodi-0.dtd"
   xmlns:inkscape="http://www.inkscape.org/namespaces/inkscape"
   width="22"
   viewBox="0 0 22 22"
   height="22"
   id="svg2"
   version="1.1"
   inkscape:version="0.91 r"
   sodipodi:docname="renamed-fluxgui.svg">
  <metadata
     id="metadata12">
    <rdf:RDF>
      <cc:Work
         rdf:about="">
        <dc:format>image/svg+xml</dc:format>
        <dc:type
           rdf:resource="http://purl.org/dc/dcmitype/StillImage" />
        <dc:title />
      </cc:Work>
    </rdf:RDF>
  </metadata>
  <sodipodi:namedview
     pagecolor="#ffffff"
     bordercolor="#666666"
     borderopacity="1"
     objecttolerance="10"
     gridtolerance="10"
     guidetolerance="10"
     inkscape:pageopacity="0"
     inkscape:pageshadow="2"
     inkscape:window-width="1280"
     inkscape:window-height="998"
     id="namedview10"
     showgrid="true"
     inkscape:zoom="37.3961"
     inkscape:cx="10.457631"
     inkscape:cy="8.700927"
     inkscape:window-x="0"
     inkscape:window-y="0"
     inkscape:window-maximized="1"
     inkscape:current-layer="svg2">
    <inkscape:grid
       type="xygrid"
       id="grid2990" />
  </sodipodi:namedview>
  <defs
     id="defs4" />
  <path
     style="fill:#353535;fill-opacity:1;stroke:none"
     d="M 11 3 C 6.581722 3 3 6.581722 3 11 C 3 11.360741 3.0162405 11.714407 3.0625 12.0625 C 3.0790837 12.190628 3.1024781 12.311387 3.125 12.4375 C 3.1377791 12.50827 3.1416223 12.586141 3.15625 12.65625 C 3.2038068 12.885496 3.3084075 13.091024 3.375 13.3125 C 3.3808422 13.331801 3.3690161 13.355761 3.375 13.375 C 3.3847632 13.406607 3.3961088 13.437315 3.40625 13.46875 C 3.477037 13.686777 3.5364452 13.915633 3.625 14.125 C 3.6300679 14.137063 3.6511249 14.144217 3.65625 14.15625 C 3.7028124 14.264716 3.7613419 14.36282 3.8125 14.46875 C 3.8631315 14.573971 3.8824661 14.678679 3.9375 14.78125 C 3.9441542 14.793655 3.9620324 14.800134 3.96875 14.8125 C 4.0753154 15.008631 4.1904385 15.220575 4.3125 15.40625 C 4.3282776 15.430152 4.3589737 15.445028 4.375 15.46875 C 4.4984504 15.652047 4.612164 15.828014 4.75 16 C 4.8515795 16.126687 4.9535406 16.254799 5.0625 16.375 C 5.1018229 16.418378 5.1472413 16.457503 5.1875 16.5 C 5.2377398 16.553053 5.2920881 16.604588 5.34375 16.65625 C 5.4945297 16.806877 5.6500644 16.95556 5.8125 17.09375 C 5.9145082 17.180779 6.0186603 17.261854 6.125 17.34375 C 6.1659266 17.375207 6.2084474 17.406826 6.25 17.4375 C 6.3413424 17.505036 6.436989 17.561319 6.53125 17.625 C 6.6348975 17.695039 6.7366844 17.778532 6.84375 17.84375 C 6.9551073 17.911509 7.0726588 17.968864 7.1875 18.03125 C 7.3508961 18.120115 7.5173831 18.203698 7.6875 18.28125 C 7.7931556 18.329302 7.8919463 18.393969 8 18.4375 C 8.0395332 18.453457 8.0851516 18.453408 8.125 18.46875 C 8.2861304 18.53069 8.4590413 18.573381 8.625 18.625 C 8.8255856 18.687387 9.0116171 18.765759 9.21875 18.8125 C 9.2712752 18.824366 9.3220887 18.832923 9.375 18.84375 C 9.5487503 18.879233 9.7285103 18.913411 9.90625 18.9375 C 9.9977866 18.950018 10.095004 18.959357 10.1875 18.96875 C 10.20785 18.970794 10.229605 18.966857 10.25 18.96875 C 10.498835 18.992071 10.745068 19 11 19 C 11.403838 19 11.799736 18.963999 12.1875 18.90625 C 12.207425 18.903283 12.230124 18.909364 12.25 18.90625 C 12.270616 18.903072 12.291937 18.909584 12.3125 18.90625 C 12.624931 18.854879 12.919625 18.74271 13.21875 18.65625 C 13.342711 18.62042 13.472344 18.604086 13.59375 18.5625 C 13.86 18.471299 14.122257 18.367667 14.375 18.25 C 14.481755 18.200299 14.583366 18.147961 14.6875 18.09375 C 14.880678 17.993771 15.066513 17.896109 15.25 17.78125 C 15.345422 17.721331 15.438593 17.657529 15.53125 17.59375 C 15.574731 17.563876 15.613401 17.530707 15.65625 17.5 C 15.898344 17.32625 16.122906 17.136565 16.34375 16.9375 C 16.371046 16.912896 16.410547 16.899973 16.4375 16.875 C 16.511372 16.806412 16.585033 16.72757 16.65625 16.65625 C 16.863934 16.448566 17.066061 16.229403 17.25 16 C 17.388641 15.827281 17.50089 15.652899 17.625 15.46875 C 17.633013 15.456889 17.648299 15.449406 17.65625 15.4375 C 17.792528 15.232835 17.913956 15.030001 18.03125 14.8125 C 18.154406 14.585791 18.273794 14.364277 18.375 14.125 C 18.393058 14.082077 18.420172 14.043306 18.4375 14 C 18.809391 13.076881 19 12.056245 19 11 C 19 6.581722 15.418278 3 11 3 z M 11 4 C 14.865993 4 18 7.1340068 18 11 C 18 11.774865 17.857462 12.522037 17.625 13.21875 C 14.6923 10.353015 11.554306 8.2164029 8.65625 8.25 C 6.9835359 8.2693935 5.3971192 9.031996 4 10.75 C 4.1319467 7.0000741 7.2178916 4 11 4 z "
     id="path3757" />
</svg>

<svg xmlns="http://www.w3.org/2000/svg" viewBox="0 0 22 22">
 <path d="m 11 3 c -4.418 0 -8 3.582 -8 8 c 0 0.361 0.016 0.714 0.063 1.063 c 0.017 0.128 0.04 0.249 0.063 0.375 c 0.013 0.071 0.017 0.149 0.031 0.219 c 0.048 0.229 0.152 0.435 0.219 0.656 c 0.006 0.019 -0.006 0.043 0 0.063 c 0.01 0.032 0.021 0.062 0.031 0.094 c 0.071 0.218 0.13 0.447 0.219 0.656 c 0.005 0.012 0.026 0.019 0.031 0.031 c 0.047 0.108 0.105 0.207 0.156 0.313 c 0.051 0.105 0.07 0.21 0.125 0.313 c 0.007 0.012 0.025 0.019 0.031 0.031 c 0.107 0.196 0.222 0.408 0.344 0.594 c 0.016 0.024 0.046 0.039 0.063 0.063 c 0.123 0.183 0.237 0.359 0.375 0.531 c 0.102 0.127 0.204 0.255 0.313 0.375 c 0.039 0.043 0.085 0.083 0.125 0.125 c 0.05 0.053 0.105 0.105 0.156 0.156 c 0.151 0.151 0.306 0.299 0.469 0.438 c 0.102 0.087 0.206 0.168 0.313 0.25 c 0.041 0.031 0.083 0.063 0.125 0.094 c 0.091 0.068 0.187 0.124 0.281 0.188 c 0.104 0.07 0.205 0.154 0.313 0.219 c 0.111 0.068 0.229 0.125 0.344 0.188 c 0.163 0.089 0.33 0.172 0.5 0.25 c 0.106 0.048 0.204 0.113 0.313 0.156 c 0.04 0.016 0.085 0.016 0.125 0.031 c 0.161 0.062 0.334 0.105 0.5 0.156 c 0.201 0.062 0.387 0.141 0.594 0.188 c 0.053 0.012 0.103 0.02 0.156 0.031 c 0.174 0.035 0.354 0.07 0.531 0.094 c 0.092 0.013 0.189 0.022 0.281 0.031 c 0.02 0.002 0.042 -0.002 0.063 0 c 0.249 0.023 0.495 0.031 0.75 0.031 c 0.404 0 0.8 -0.036 1.188 -0.094 c 0.02 -0.003 0.043 0.003 0.063 0 c 0.021 -0.003 0.042 0.003 0.063 0 c 0.312 -0.051 0.607 -0.164 0.906 -0.25 c 0.124 -0.036 0.254 -0.052 0.375 -0.094 c 0.266 -0.091 0.529 -0.195 0.781 -0.313 c 0.107 -0.05 0.208 -0.102 0.313 -0.156 c 0.193 -0.1 0.379 -0.198 0.563 -0.313 c 0.095 -0.06 0.189 -0.124 0.281 -0.188 c 0.043 -0.03 0.082 -0.063 0.125 -0.094 c 0.242 -0.174 0.467 -0.363 0.688 -0.563 c 0.027 -0.025 0.067 -0.038 0.094 -0.063 c 0.074 -0.069 0.148 -0.147 0.219 -0.219 c 0.208 -0.208 0.41 -0.427 0.594 -0.656 c 0.139 -0.173 0.251 -0.347 0.375 -0.531 c 0.008 -0.012 0.023 -0.019 0.031 -0.031 c 0.136 -0.205 0.258 -0.407 0.375 -0.625 c 0.123 -0.227 0.243 -0.448 0.344 -0.688 c 0.018 -0.043 0.045 -0.082 0.063 -0.125 c 0.372 -0.923 0.563 -1.944 0.563 -3 c 0 -4.418 -3.582 -8 -8 -8 z m 0 1 c 3.866 0 7 3.134 7 7 c 0 0.775 -0.143 1.522 -0.375 2.219 c -2.933 -2.866 -6.071 -5 -8.969 -4.969 c -1.673 0.019 -3.259 0.782 -4.656 2.5 c 0.132 -3.75 3.218 -6.75 7 -6.75 z" style="fill:#353535;fill-opacity:1;stroke:none"/>
</svg>
